source/uE934-comment-urgent.svg

<?xml version="1.0" encoding="UTF-8" standalone="no"?>
<svg
   xmlns:dc="http://purl.org/dc/elements/1.1/"
   xmlns:cc="http://creativecommons.org/ns#"
   xmlns:rdf="http://www.w3.org/1999/02/22-rdf-syntax-ns#"
   xmlns:svg="http://www.w3.org/2000/svg"
   xmlns="http://www.w3.org/2000/svg"
   id="svg4562"
   xml:space="preserve"
   enable-background="new 0 0 1024.00 1024.00"
   viewBox="0 0 1024.00 1024.00"
   height="1024"
   width="1024"
   version="1.1"><metadata
     id="metadata4568"><rdf:RDF><cc:Work
         rdf:about=""><dc:format>image/svg+xml</dc:format><dc:type
           rdf:resource="http://purl.org/dc/dcmitype/StillImage" /><dc:title></dc:title></cc:Work></rdf:RDF></metadata><defs
     id="defs4566" /><g
     id="g5743" /><g
     transform="translate(0,-662.47461)"
     id="g5743-3" /><g
     id="g4518-2"
     transform="matrix(-1,0,0,1,1023.0285,-1.627182)" /><path
     style="color:#000000;font-style:normal;font-variant:normal;font-weight:normal;font-stretch:normal;font-size:medium;line-height:normal;font-family:sans-serif;font-variant-ligatures:normal;font-variant-position:normal;font-variant-caps:normal;font-variant-numeric:normal;font-variant-alternates:normal;font-feature-settings:normal;text-indent:0;text-align:start;text-decoration:none;text-decoration-line:none;text-decoration-style:solid;text-decoration-color:#000000;letter-spacing:normal;word-spacing:normal;text-transform:none;writing-mode:lr-tb;direction:ltr;text-orientation:mixed;dominant-baseline:auto;baseline-shift:baseline;text-anchor:start;white-space:normal;shape-padding:0;clip-rule:nonzero;display:inline;overflow:visible;visibility:visible;opacity:0.98999999;isolation:auto;mix-blend-mode:normal;color-interpolation:sRGB;color-interpolation-filters:linearRGB;solid-color:#000000;solid-opacity:1;vector-effect:none;fill:#ed481a;fill-opacity:1;fill-rule:nonzero;stroke:none;stroke-width:63.99999237;stroke-linecap:butt;stroke-linejoin:miter;stroke-miterlimit:4;stroke-dasharray:none;stroke-dashoffset:0;stroke-opacity:1;color-rendering:auto;image-rendering:auto;shape-rendering:auto;text-rendering:auto;enable-background:accumulate"
     d="M -0.1484375,72.845703 V 808.71094 H 149.10352 V 1028.7832 L 403.44727,808.71094 h 562.875 V 72.845703 Z M 63.851562,136.8457 H 902.32227 V 744.71094 H 378.74414 c 0,0 -114.89076,100.19068 -165.64062,144.06445 v -0.73828 l -1.74805,1.51172 V 744.71094 H 63.851562 Z M 451.08594,212.8125 V 494 H 515.086 l -6e-5,-281.1875 z m 0,343.00195 v 64 h 64 v -64 z"
     id="rect4621" /><g
     style="fill:#ecd919;fill-opacity:1;stroke-width:1.17195237"
     id="g4590-9"
     transform="matrix(0.86594866,0,0,0.84079078,63.495658,73.300115)" /></svg>

<?xml version="1.0" encoding="UTF-8" standalone="no"?>
<svg
   xmlns:dc="http://purl.org/dc/elements/1.1/"
   xmlns:cc="http://creativecommons.org/ns#"
   xmlns:rdf="http://www.w3.org/1999/02/22-rdf-syntax-ns#"
   xmlns:svg="http://www.w3.org/2000/svg"
   xmlns="http://www.w3.org/2000/svg"
   version="1.1"
   width="1024"
   height="1024"
   viewBox="0 0 1024.00 1024.00"
   enable-background="new 0 0 1024.00 1024.00"
   xml:space="preserve"
   id="svg4562"><metadata
     id="metadata4568"><rdf:RDF><cc:Work
         rdf:about=""><dc:format>image/svg+xml</dc:format><dc:type
           rdf:resource="http://purl.org/dc/dcmitype/StillImage" /><dc:title></dc:title></cc:Work></rdf:RDF></metadata><defs
     id="defs4566" /><g
     id="g5743" /><g
     id="g5743-3"
     transform="translate(0,-662.47461)" /><g
     transform="matrix(-1,0,0,1,1023.0285,-1.627182)"
     id="g4518-2" /><path
     id="rect4621"
     d="M -0.1484375 72.845703 L -0.1484375 808.71094 L 149.10352 808.71094 L 149.10352 1028.7832 L 403.44727 808.71094 L 966.32227 808.71094 L 966.32227 72.845703 L -0.1484375 72.845703 z M 63.851562 136.8457 L 902.32227 136.8457 L 902.32227 744.71094 L 378.74414 744.71094 C 378.74414 744.71094 263.85338 844.90162 213.10352 888.77539 L 213.10352 888.03711 L 211.35547 889.54883 L 211.35547 744.71094 L 63.851562 744.71094 L 63.851562 136.8457 z M 451.08594 212.8125 L 451.08594 514.50391 L 515.08594 514.50391 L 515.08594 212.8125 L 451.08594 212.8125 z M 451.08594 555.81445 L 451.08594 619.81445 L 515.08594 619.81445 L 515.08594 555.81445 L 451.08594 555.81445 z "
     style="color:#000000;font-style:normal;font-variant:normal;font-weight:normal;font-stretch:normal;font-size:medium;line-height:normal;font-family:sans-serif;font-variant-ligatures:normal;font-variant-position:normal;font-variant-caps:normal;font-variant-numeric:normal;font-variant-alternates:normal;font-feature-settings:normal;text-indent:0;text-align:start;text-decoration:none;text-decoration-line:none;text-decoration-style:solid;text-decoration-color:#000000;letter-spacing:normal;word-spacing:normal;text-transform:none;writing-mode:lr-tb;direction:ltr;text-orientation:mixed;dominant-baseline:auto;baseline-shift:baseline;text-anchor:start;white-space:normal;shape-padding:0;clip-rule:nonzero;display:inline;overflow:visible;visibility:visible;opacity:0.98999999;isolation:auto;mix-blend-mode:normal;color-interpolation:sRGB;color-interpolation-filters:linearRGB;solid-color:#000000;solid-opacity:1;vector-effect:none;fill:#ed481a;fill-opacity:1;fill-rule:nonzero;stroke:none;stroke-width:63.99999237;stroke-linecap:butt;stroke-linejoin:miter;stroke-miterlimit:4;stroke-dasharray:none;stroke-dashoffset:0;stroke-opacity:1;color-rendering:auto;image-rendering:auto;shape-rendering:auto;text-rendering:auto;enable-background:accumulate" /><g
     transform="matrix(0.86594866,0,0,0.84079078,63.495658,73.300115)"
     id="g4590-9"
     style="fill:#ecd919;fill-opacity:1;stroke-width:1.17195237" /></svg>
